dist/images/ico/ico_arrow_11.svg

<svg width="28" height="28" viewBox="0 0 28 28" fill="none" xmlns="http://www.w3.org/2000/svg">
<path d="M10.2105 15.8223C10.4899 16.0592 10.9412 16.0592 11.2206 15.8223L14.0005 13.4655L16.7803 15.8223C17.0597 16.0592 17.511 16.0592 17.7904 15.8223C18.0699 15.5854 18.0699 15.2027 17.7904 14.9658L14.502 12.1777C14.2225 11.9408 13.7712 11.9408 13.4918 12.1777L10.2033 14.9658C9.93105 15.1967 9.93105 15.5854 10.2105 15.8223Z" fill="#253981"/>
</svg>

<svg width="28" height="28" fill="none" xmlns="http://www.w3.org/2000/svg"><path d="M10.21 15.822a.806.806 0 001.01 0L14 13.466l2.78 2.356a.806.806 0 001.01 0 .542.542 0 000-.856l-3.288-2.788a.807.807 0 00-1.01 0l-3.289 2.788a.547.547 0 00.008.856z" fill="#253981"/></svg>
